X: 74
T: Violet With Tear-Dimmed Eye
O: German
Q: "Andante."
%R: air, march
B: "The Everyday Song Book", 1927
F: http://www.library.pitt.edu/happybirthday/pdf/The_Everyday_Song_Book.pdf
Z: 2017 John Chambers <jc:trillian.mit.edu>
M: 2/4
L: 1/4
K: Ab
% - - - - - - - - - - - - - - - - - - - - - - - - - - - - -
[| A B | c c | B B | A z | c d | e e | d d | c z |
w: 1.~Vi-o-let with tear-dimmed eye,  Lov-liest flow'er be-neath the sky;
w: 2.~Rays of love the sun-beams dart Deep in-to thy ver-y heart;
%
B c | d d | c d | e z | f f | e d | c B | A z |]
w: Vi-o-let, re-joice with me!       Al-so smiles the sun on thee!
w: Wipe the tear from off thine eye, Vi-o-let, re-joice with me!
% - - - - - - - - - - - - - - - - - - - - - - - - - - - - -
